img/advantages/4.svg

<svg width="50" height="50" viewBox="0 0 50 50" fill="none" xmlns="http://www.w3.org/2000/svg">
<path fill-rule="evenodd" clip-rule="evenodd" d="M23.5084 0.907576C21.7611 2.19367 20.3075 3.07156 18.3499 4.02312C14.372 5.95673 10.4937 6.94365 6.11194 7.13738C4.46511 7.21026 4.35931 7.22694 4.18461 7.44113C4.00841 7.6572 3.99971 8.02033 4.00001 15.1787C4.00021 19.5272 4.04381 23.1702 4.10351 23.8313C4.59622 29.2907 6.45864 34.3488 9.60609 38.7755C11.7537 41.7962 14.6898 44.6254 17.7283 46.6022C19.8008 47.9506 21.3072 48.7254 23.5932 49.619C24.9234 50.1389 24.9159 50.1391 26.4604 49.5433C36.5821 45.6388 43.8295 36.792 45.5912 26.1903C45.9578 23.9843 45.9996 22.8582 46 15.1787C46.0003 8.02033 45.9916 7.6572 45.8154 7.44113C45.6407 7.22694 45.5349 7.21026 43.8881 7.13738C39.39 6.93858 35.6168 5.96319 31.4501 3.92243C29.4338 2.93483 28.0634 2.09656 26.343 0.798349C25.6211 0.253506 25.1988 0 25.0133 0C24.8273 0 24.3522 0.286572 23.5084 0.907576ZM25.9533 2.34669C30.7086 5.83946 36.4916 8.05081 42.1502 8.54035C42.8652 8.60221 43.6896 8.67559 43.982 8.70339L44.5138 8.75413L44.4705 16.2182C44.4247 24.1356 44.4123 24.3663 43.8998 26.9141C42.7857 32.4507 40.0855 37.5036 36.1002 41.5094C33.1161 44.5086 29.8288 46.6686 25.9246 48.1953L24.9991 48.5572L24.0246 48.1707C18.2587 45.8847 13.6295 42.1294 10.1847 36.9434C9.37648 35.7267 7.87296 32.7559 7.35145 31.3454C6.61504 29.3534 6.08104 27.2274 5.73863 24.9236C5.59403 23.9509 5.56273 22.6691 5.52713 16.274L5.48543 8.76645L5.86753 8.70369C6.07774 8.66923 6.47604 8.64054 6.75275 8.63994C7.55176 8.63825 9.62389 8.35982 11.1998 8.04257C15.7107 7.1343 20.355 5.08818 23.9802 2.41193C24.5136 2.01811 24.974 1.69411 25.0033 1.69202C25.0326 1.68984 25.4601 1.98445 25.9533 2.34669ZM24.0987 5.13406C20.0053 7.87754 15.1367 9.75396 9.85339 10.624C8.29287 10.881 8.13696 10.9256 7.91886 11.1773L7.68166 11.4511L7.72866 17.4675C7.78166 24.2423 7.84246 25.0038 8.55387 27.8032C10.1721 34.1717 14.0869 39.6601 19.6289 43.3301C20.9085 44.1775 23.1591 45.3636 24.3511 45.8189L25.0522 46.0867L25.9011 45.7269C33.8554 42.3559 39.6619 35.4371 41.5393 27.0931C42.0926 24.6337 42.1257 24.1399 42.1727 17.6392C42.1967 14.3155 42.1896 11.49 42.1568 11.3605C42.0785 11.0504 41.6864 10.8598 40.9501 10.7737C39.9844 10.6609 37.7318 10.2383 36.6502 9.96715C33.1703 9.09452 29.6703 7.5864 26.583 5.62945C25.6836 5.05919 25.124 4.76626 24.9344 4.76626C24.7688 4.76626 24.4152 4.92186 24.0987 5.13406ZM25.6719 6.79033C28.1077 8.35397 31.2761 9.83528 34.1501 10.7544C36.067 11.3673 37.6482 11.7268 40.3854 12.1718L40.7207 12.2264L40.672 17.7558C40.621 23.5507 40.5826 24.1346 40.0993 26.467C39.1713 30.9454 36.902 35.2276 33.6819 38.5764C32.3586 39.9528 31.0769 41.0141 29.4052 42.1177C27.9755 43.0615 25.4074 44.3858 25.0068 44.3858C24.6099 44.3858 22.0074 43.0536 20.6642 42.163C18.4395 40.6878 16.4825 38.9342 14.884 36.9836C12.6565 34.2654 10.7455 30.3152 9.96229 26.8102C9.42258 24.3945 9.37998 23.7904 9.32798 17.8054L9.27948 12.2264L9.61459 12.1718C11.497 11.8658 12.5642 11.6544 13.7498 11.3529C17.3247 10.444 21.0901 8.83436 24.0393 6.95467C24.5402 6.63543 24.9598 6.36991 24.9719 6.36465C24.9839 6.35929 25.2989 6.55093 25.6719 6.79033Z" fill="white" fill-opacity="0.6"/>
<path d="M24.1308 31.4171L23.5098 15H26.3158L25.8788 31.4171H24.1308ZM25.0278 36.6381C24.5984 36.6381 24.2381 36.4924 23.9468 36.2011C23.6554 35.9097 23.5098 35.5647 23.5098 35.1661C23.5098 34.7367 23.6554 34.3841 23.9468 34.1081C24.2381 33.8321 24.5984 33.6941 25.0278 33.6941C25.4571 33.6941 25.8098 33.8321 26.0858 34.1081C26.3618 34.3841 26.4998 34.7367 26.4998 35.1661C26.4998 35.5647 26.3618 35.9097 26.0858 36.2011C25.8098 36.4924 25.4571 36.6381 25.0278 36.6381Z" fill="#F3C469"/>
</svg>

<svg width="50" height="50" viewBox="0 0 50 50" fill="none" xmlns="http://www.w3.org/2000/svg"><path fill-rule="evenodd" clip-rule="evenodd" d="M23.508.908a30.715 30.715 0 01-5.158 3.115c-3.978 1.934-7.856 2.92-12.238 3.114-1.647.073-1.753.09-1.927.304-.177.216-.185.58-.185 7.738 0 4.348.044 7.991.104 8.652.492 5.46 2.355 10.518 5.502 14.945 2.148 3.02 5.084 5.85 8.122 7.826 2.073 1.349 3.58 2.123 5.865 3.017 1.33.52 1.323.52 2.867-.076C36.582 45.64 43.83 36.792 45.591 26.19c.367-2.206.409-3.332.409-11.011 0-7.159-.008-7.522-.185-7.738-.174-.214-.28-.23-1.927-.304-4.498-.198-8.271-1.174-12.438-3.215-2.016-.987-3.387-1.825-5.107-3.124C25.621.254 25.199 0 25.013 0c-.186 0-.66.287-1.505.908zm2.445 1.439C30.71 5.839 36.492 8.05 42.15 8.54c.715.062 1.54.136 1.832.163l.532.051-.044 7.464c-.045 7.918-.058 8.148-.57 10.696a28.665 28.665 0 01-7.8 14.595c-2.984 3-6.271 5.16-10.175 6.686l-.926.362-.974-.386c-5.766-2.286-10.395-6.042-13.84-11.228-.809-1.216-2.312-4.187-2.834-5.598-.736-1.992-1.27-4.118-1.612-6.421-.145-.973-.176-2.255-.212-8.65l-.042-7.508.383-.062c.21-.035.608-.063.885-.064.799-.002 2.87-.28 4.447-.597 4.51-.909 9.155-2.955 12.78-5.631.534-.394.994-.718 1.023-.72.03-.002.457.292.95.655zM24.1 5.134c-4.094 2.744-8.962 4.62-14.246 5.49-1.56.257-1.716.302-1.934.553l-.237.274.047 6.017c.053 6.774.113 7.536.825 10.335 1.618 6.369 5.533 11.857 11.075 15.527 1.28.848 3.53 2.034 4.722 2.489l.701.268.85-.36c7.953-3.371 13.76-10.29 15.637-18.634.554-2.46.587-2.953.634-9.454.024-3.323.017-6.149-.016-6.278-.078-.31-.47-.501-1.207-.587-.966-.113-3.218-.536-4.3-.807-3.48-.872-6.98-2.38-10.067-4.338-.9-.57-1.459-.863-1.649-.863-.165 0-.519.156-.835.368zm1.573 1.656c2.436 1.564 5.604 3.045 8.478 3.964 1.917.613 3.498.973 6.235 1.418l.336.054-.049 5.53c-.051 5.795-.09 6.379-.573 8.711-.928 4.478-3.197 8.76-6.417 12.11-1.323 1.376-2.605 2.437-4.277 3.54-1.43.945-3.998 2.269-4.398 2.269-.397 0-3-1.332-4.343-2.223-2.225-1.475-4.181-3.229-5.78-5.18-2.228-2.718-4.139-6.668-4.922-10.173-.54-2.415-.582-3.02-.634-9.005l-.049-5.579.336-.054c1.882-.306 2.95-.518 4.135-.82 3.575-.908 7.34-2.518 10.29-4.397.5-.32.92-.585.932-.59.012-.006.327.186.7.425z" fill="#fff" fill-opacity=".6"/><path d="M24.13 31.417L23.51 15h2.806l-.437 16.417H24.13zm.898 5.221c-.43 0-.79-.146-1.081-.437a1.415 1.415 0 01-.437-1.035c0-.43.145-.782.437-1.058a1.511 1.511 0 011.08-.414c.43 0 .783.138 1.059.414.276.276.414.629.414 1.058 0 .399-.138.744-.414 1.035-.276.291-.629.437-1.058.437z" fill="#F3C469"/></svg>
